X: 576
T: Qingshan shang
L: 1/8
M: 2/4
K: A
^d> c e f [I:setbarnb 1]| 
e2e2 | 
^d c e f | 
E4 | 
^d c e f | 
B2e A | 
G2B F | 
E4 | 
A2B A | 
G FE2 | 
^d c e f | 
e4 | 
^d> c e f | 
B B e A | 
G2B F | 
E4 |]

@@@ Tune index: 9450
